X:6964
T:The Joys of Wedlock
O:england
B:Joyce, P. W.; "Old Irish Folk Music and Songs"
R:jig
L:1/8
M:6/8
K:G
D|G>AG GBd|gfe d2 c|Bdg dBG|FAA A2 B|
G>AG GBd|gfe d2 c|B3 cAF|AGG G2:|
|:c|Bdg dBG|Bdg d2 c|Bdg dBG|FAA A2 c|
Bdg dcB|c/B/c/d/e/g/ d2 c|c3 cAF|AGG G2:|


